!!!OTL: HINTERM RIESEN VORN AM RIESEN
!!!ARE: Europa, Mitteleuropa, Schweiz, Kanton Bern, Siebenthal
!!!SCT: E1473A
!!!YEM: Copyright 1995, estate of Helmut Schaffrath.
**kern
*ICvox
*Ivox
*M3/8
*k[f#]
*G:
=1
{4dd
16ee
16dd
=2
4dd
16ee
16dd
=3
4dd
16ee
16dd
=4
4dd
16ee
16dd}
=5
{4b
8dd
=6
4g
8a
=7
8b
8a
8g
=8
8a
8d
8d}
=9
{8b
8g
8g
=10
8a
8d
8d
=11
8b
8g
8g
=12
8a
8d
8d}
==
!!!AGN: Staende -, Hirten -, Alpen - Lied, Kuhreihen
!!!ONB: ESAC (Essen Associative Code) Database: ERK3
!!!AMT: simple triple
!!!AIN: vox
!!!EED: Helmut Schaffrath
!!!EEV: 1.0
*-
